src/main/resources/react/src/img/cards/addFoto.svg

<svg width="77" height="76" viewBox="0 0 77 76" fill="none" xmlns="http://www.w3.org/2000/svg">
<circle cx="38.588" cy="38.2" r="26.123" transform="rotate(-45 38.588 38.2)" fill="white" stroke="#BABABA"/>
<path fill-rule="evenodd" clip-rule="evenodd" d="M36.8388 39.9213L36.8388 51.5116L39.5011 51.5116L39.5011 39.9213L51.8714 39.9213L51.8714 37.259L39.5011 37.259L39.5011 24.8887L36.8388 24.8887L36.8388 37.259L25.2485 37.259V39.9213L36.8388 39.9213Z" fill="#BABABA"/>
</svg>

<svg width="77" height="76" fill="none" xmlns="http://www.w3.org/2000/svg"><circle cx="38.588" cy="38.2" r="26.123" transform="rotate(-45 38.588 38.2)" fill="#fff" stroke="#BABABA"/><path fill-rule="evenodd" clip-rule="evenodd" d="M36.839 39.921v11.59H39.5v-11.59h12.37V37.26h-12.37v-12.37H36.84v12.37h-11.59v2.662h11.59z" fill="#BABABA"/></svg>
